X: 4
T: Lunar Eclipse
C: Elizabeth A. Snowdon
N: Philadelphia, Pennsylvania
B: "Gems - The Best of the Country Dance and Song Society", CDSS, 1993 p.49
Z: 2011 John Chambers <jc:trillian.mit.edu>
R: jig
M: 6/8
L: 1/8
K: Ador
E "A"|\
"Am"ABc B2A | "Dm"=f3 e2d | "Am"cdB "E"c2B | "Am"c2B A2E |
"Am"ABc B2A | "Dm"=f3 e2d | "Am"c2B "E"cdB | "Am"A3- A2 :|
|: B/c/ "B"| "G"ded BAG | "C"c3 B2c | "E"e2B c2B | "Am"A3- A2d |
"E"e2B "Am"c2A | "B"B2F "Em"G2B | "Am"ABA "B"G2F | "Am"E3- E2 :|
%%begintext align
The author notes, "This dance was written to give a new, challenging figure to the
bored experienced dancer. The general flavor is of a quiet, smooth English dance.
There are a number of circles which appear and disappear like an eclipse of the
moon.  There is an air of mystery in the tune to capture the mystery of an eclipse.
This cance commemorates the two lunar eclipses seen at Pinewoods on August 17,
1989.  One was a cardboard one in C#; the other was [a] real one over Round and
Long Ponds.
%%endtext

%%sep 1 1 500
%%sep 1 1 500
